X:1
T:There's a Hole in the Bucket
M:3/4
L:1/8
K:F
 FG| A2 C2 C2| D F3 C2| D F3 C2| D F3 FG| A2 C2 C2| D F3 C2| D F3 EE|\
 F4 z G| ACC DF C| DFC DF G| ACC DF C| DF-E F/2 F z/2||
